!!!OTL: Das Rosenband.
!!!OTL-incipit: IM FRUEHLINGSSCHATTEN
!!!COM: C. F. Zelter
!!!ARE: Europa, Mitteleuropa, Deutschland
!!!SCT: F0912
!!!TXL: @@DE
!!!YEM: Copyright 1995, estate of Helmut Schaffrath.
**kern	**text
*ICvox	*
*clefG2	*
*M6/8	*
*k[f#c#g#d#]	*
*E:	*
{8b/	1._Jm
=1	=1
8b/L	Früh-
8g#J	.
8ee	-lings-
8bL	-ſchat-
8g#J	.
8e	-ten
=2	=2
8f#L	fand
8g#J	.
8a	ich
4g#}	ſie;
{8g#	da
=3	=3
8f#L	band
8g#J	.
8a#	ich
8bL	ſie
8cc#J	.
8dd#	mit
=4	=4
8eeL	Ro-
8cc#J	.
8ff#	-ſenbändern;
16eeL	.
16dd#J	.
8dd#}	.
{8b	ſie
=5	=5
4ee;	fühlt'
8b#	es
8cc#L	nicht
8aJ	.
8f#	und
=6	=6
[4.b	ſchlum-
4b]	.
8d#	-mer-
=7	=7
4.e	-te.
4r}	.
==	==
!!!AGN: Liebes - Lied
!!!ONB: ESAC (Essen Associative Code) Database: FINK
!!!AMT: compound duple
!!!AIN: vox
!!!EED: Helmut Schaffrath
!!!EEV: 1.0
!!Text: Klopstock
!!!RDF**kern: > = above
!!!GTL: Minnelieder
!!!source: Musikalischer Hausschatz der Deutschen. Eine Sammlung von über 1000 Liedern und Gesängen mit Singstimmen und Klavierbegleitung. Leipzig, Litterarisches Verlags-Haus.
!!!page: 675
!!!URL-scan: https://www.digitale-sammlungen.de/en/view/bsb11144622?page=585
!!!ENC: Anna Maria Matuszewska
!!!EEV: 2024/08/07
*-	*-